!!!COM: Haydn, Franz Joseph
!!!OTL: String Quartet in B Minor
!!!OPS: Opus 64
!!!ONM: No. 2
!!!OMD: Menuetto: Allegretto
!!!OMV: 3
!!!SCT: H III:68
!!!SCA: Thematisch-bibliographisches Werkevererzeichnis (A. van Hoboken)
!!!YOR: Dover Edition; reprint of Eulenburg Edition
!!!ENC: Walter Hewlett
!!!CDT: 1732/3/31/-1809/5/31/
!!!CNT: Oesterreich
!!!YEC: Copyright (c) 1994, 2000 Center for Computer Assisted Research in the Humanities
!!!YEM: Rights to all derivative editions reserved.
!!!YEM: Refer to licensing agreement for further details.
!!!YEN: United States of America
**kern	**kern	**kern	**kern
*I:Violoncello	*I:Viola	*I:Violino II	*I:Violino I
*>[A,A,B,B,C,C,D,D]	*>[A,A,B,B,C,C,D,D]	*>[A,A,B,B,C,C,D,D]	*>[A,A,B,B,C,C,D,D]
*>A	*>A	*>A	*>A
*clefF4	*clefC3	*clefG2	*clefG2
*k[f#c#]	*k[f#c#]	*k[f#c#]	*k[f#c#]
*b:	*b:	*b:	*b:
*M3/4	*M3/4	*M3/4	*M3/4
! Allegretto	! Allegretto	! Allegretto	! Allegretto
4r	4r	4r	4f#/
2ryy	2ryy	2ryy	2ryy
=1	=1	=1	=1
2.r	4d\	4f#/	4b\
.	4c#\	4e/	4cc#\
.	4B/	4d/	4dd\
=2	=2	=2	=2
2.r	4e\	4g/	4cc#\
.	4r	4r	8cc#\L
.	.	.	8b\J
.	4e\	4g/	4cc#\
=3	=3	=3	=3
2.r	4e\	4g/	4cc#\
.	4r	4r	8cc#\L
.	.	.	8b\J
.	4e\	4g/	4cc#\
=4	=4	=4	=4
2F#\	2c#\	2e/ 2A#/	4ff#\
.	.	.	8ff#\L
.	.	.	8ee\
4F#\	4A#/	4e/ 4A#/	8dd\
.	.	.	8cc#\J
=5	=5	=5	=5
4BB/	4B/	4d/ 4B/	4b\
4r	4r	4r	4r
4B\	4B/	4f#/	4dd\
=6	=6	=6	=6
4A\	4e\	4g/	4cc#\
4r	4r	4r	8cc#\L
.	.	.	8b\J
4A\	4e\	4g/	4cc#\
=7	=7	=7	=7
4A\	4e\	4g/	4cc#\
4r	4r	4r	8cc#\L
.	.	.	8b\J
4A\	4e\	4g/	4cc#\
=8	=8	=8	=8
4F#\	4d\	4f#/	4dd\
4r	4r	4r	8dd\L
.	.	.	8ee\
4D\	4a\	4dd\	8ff#\
.	.	.	8gg\J
=9	=9	=9	=9
4C#/	4e\	4gg\	4aa\
4r	8e\L	8gg\L	4aa\
.	8d\J	8ff#\J	.
4C#/	4e\	4gg\	4aa\
=10	=10	=10	=10
4D\	4d\	4ff#\	4aa\
4r	4r	4ff#\	4aa\
4F#\	4d\	4dd\	4aa\
=11	=11	=11	=11
4G\	4e\	4cc#\	8aa\L
.	.	.	8aa\
8G\L	8e\L	8cc#\L	8aa\
8F#\J	8d\J	8b\J	8aa\
4G\	4e\	4cc#\	8aa\
.	.	.	8aa\J
=12	=12	=12	=12
4F#\	4a\	4dd\	8aa\L
.	.	.	8bb\
4D\	4f#\	4r	8ccc#\
.	.	.	8ddd\
4BB/	4d\	4r	8eee\
.	.	.	8fff#\J
=13	=13	=13	=13
4GG/	4B/	4b\	4ggg\
4r	4r	4g/	4eee\
4AA/	4G/	4e/	4ccc#\
=14	=14	=14	=14
4D\	4F#/	4f#/	4ddd\
4r	4r	4r	4r
=:!!:	=:!!:	=:!!:	=:!!:
*>B	*>B	*>B	*>B
4GG/	4r	4r	4B/
2ryy	2ryy	2ryy	2ryy
=15	=15	=15	=15
4FF#/	[2.D/	2.r	4cn/
8FF#/L	.	.	4A/
8EE/J	.	.	.
4FF#/	.	.	4A/
=16	=16	=16	=16
4GG/	4D/]	2.r	4B/
4r	4r	.	4G/
4r	4r	.	4b\
=17	=17	=17	=17
2.r	8d\L	2r	4ccn\
.	8d\	.	.
.	8d\	.	8cc\L
.	8d\	.	8b\J
.	8d\	4f#/	4cc\
.	8d\J	.	.
=18	=18	=18	=18
2.r	4d#\	4a/	4b\
.	4r	8a/L	4r
.	.	8g#/J	.
.	4d#\	4a/	4b\
=19	=19	=19	=19
2.r	8e\L	4g#/	4dd\
.	8e\	.	.
.	8e\	4r	8dd\L
.	8e\	.	8cc#\J
.	8e\	4g#/	4dd\
.	8e\J	.	.
=20	=20	=20	=20
2r	4e#\	4b\	4cc#\
.	4r	8b/L	4r
.	.	8a#/J	.
4CC#/	4e#\	4b\	4cc#\
=21	=21	=21	=21
4FF#/	4f#\	2a#/	2cc#\
8FF#/L	4r	.	.
8EE#/J	.	.	.
4FF#/	4r	4b\	4dd\
=22	=22	=22	=22
4FF#/	2r	4a#/	4cc#\
8FF#/L	.	4r	4r
8EE#/J	.	.	.
4FF#/	4cc#\	4a#/	4ff#\
=23	=23	=23	=23
4FF#/	4dd\	4b\	4gg\
8FF#/L	4r	4r	4r
8EE#/J	.	.	.
4FF#/	4dd\	4b\	4ee#\
=24	=24	=24	=24
4FF#/	4cc#\	4a#/	4ff#\
8FF#/L	4r	4r	4r
8EE#/J	.	.	.
4FF#/	4e\	4a#/	4cc#\
=25	=25	=25	=25
4FF#/	4d\	4b\	4dd\
8FF#/L	4r	4r	4r
8EE#/J	.	.	.
4FF#/	4d\	4B/	4e#/
=26	=26	=26	=26
4FF#/	4c#\	4A#/	4f#/
4r	4r	4r	4r
4r	4r	4r	4f#/
=27	=27	=27	=27
2.r	4d\	4f#/	4b\
.	4c#\	4e/	4cc#\
.	4B/	4d/	4dd\
=28	=28	=28	=28
2.r	4e\	4g/	4cc#\
.	4r	4r	8cc#\L
.	.	.	8b\J
.	4e\	4g/	4cc#\
=29	=29	=29	=29
2.r	4e\	4g/	4cc#\
.	4r	4r	8cc#\L
.	.	.	8b\J
.	4e\	4g/	4cc#\
=30	=30	=30	=30
2F#\	2c#\	2en/ 2A#/	4ff#\
.	.	.	8ff#\L
.	.	.	8ee\
4F#\	4F#/	4e/ 4A#/	8dd\
.	.	.	8cc#\J
=31	=31	=31	=31
2G\	2G/	2d/ 2B/	4bb\
.	.	.	8bb\L
.	.	.	8aa\
4G\	4G/	4d/ 4B/	8gg\
.	.	.	8ff#\J
=32	=32	=32	=32
2E\	2G/	2c#/	4eee\
.	.	.	8eee\L
.	.	.	8ddd\
4E\	4G/	4c#/	8ccc#\
.	.	.	8bb\J
=33	=33	=33	=33
4E\	4G/	4c#/	4aa#\
4r	4r	4r	4r
4r	4r	4r	4r
=34	=34	=34	=34
2.r	2.r	2r	2.r
.	.	4B/	.
=35	=35	=35	=35
4E\	4G/	4cn/	2.r
4r	4r	8c/L	.
.	.	8B/J	.
4E\	4G/	4c/	.
=36	=36	=36	=36
4E\	4G/	4cn/	2.r
4r	4r	8c/L	.
.	.	8B/J	.
4E\	4G/	4c/	.
=37	=37	=37	=37
4E\	4G/	4cn/	8a#/L
.	.	.	8a#/
4r	4r	8c/L	8a#/
.	.	8B/J	8a#/
4E\	4G/	4c/	8a#/
.	.	.	8a#/J
=38	=38	=38	=38
4E\	4G/	4cn/	8a#/L
.	.	.	8a#/
4r	4r	8c/L	8a#/
.	.	8B/J	8a#/
4E\	4G/	4c/	8a#/
.	.	.	8a#/J
=39	=39	=39	=39
4E#\	4G#/	4d/	8a#/L
.	.	.	8a#/
4r	4r	8d/L	8a#/
.	.	8c#/J	8a#/
4E#\	4G#/	4d/	8a#/
.	.	.	8a#/J
=40	=40	=40	=40
4F#\	4B/	4d/	8b\L
.	.	.	8cc#\
4r	4r	4r	8dd\
.	.	.	8ee\
4F#\	4B/	4d/	8ff#\
.	.	.	8gg\J
=41	=41	=41	=41
4F#\	4A#/	4c#/	8ff#\L
.	.	.	8gg\
4r	4r	4r	8ff#\
.	.	.	8ee\
4F#\	4A#/	4c#/	8dd\
.	.	.	8cc#\J
=42	=42	=42	=42
4BB/	4B/	4d/	4b\
4r	4r	4r	4r
=:!!:	=:!!:	=:!!:	=:!!:
*>C	*>C	*>C	*>C
*k[f#c#g#d#a#]	*k[f#c#g#d#a#]	*k[f#c#g#d#a#]	*k[f#c#g#d#a#]
*B:	*B:	*B:	*B:
*M3/4	*M3/4	*M3/4	*M3/4
! Trio	! Trio	! Trio	! Trio
4r	4r	4r	4ff#\
2ryy	2ryy	2ryy	2ryy
=43	=43	=43	=43
4BB/	4d#\	4f#/	2bb\
4r	4B/	4d#/	.
4r	4F#/	4B/	4ddd#\
=44	=44	=44	=44
4EE/	4e\	4g#/	2ccc#\
4r	4c#\	4e/	.
4r	4E/	4c#/	4ggg#\
=45	=45	=45	=45
4FF#/	4f#\	4a#/	2fff#\
4r	4c#\	4f#/	.
4r	4A#/	4c#/	4eee\
=46	=46	=46	=46
4BB/	4f#\	4b\	4ddd#\
4r	4d#\	4f#/	4r
4B\	4B/	4d#/	4ddd#\
=47	=47	=47	=47
2A#\	4A#/	4f#/	2ccc#\
.	4f#\	4a#/	.
4E#\	4c#\	4g#/	4bb\
=48	=48	=48	=48
4F#\	4c#\	[2.f#/	4aa#\
4D#\	4F#/	.	4bb\
4Dn\	4G#/	.	4bb#\
=49	=49	=49	=49
2.C#/	2.G#/	4f#/]	2ccc#\
.	.	4e#/	.
.	.	4e#/	8bb\L
.	.	.	8gg#\J
=50	=50	=50	=50
4F#\	4A#/	4f#/	4ff#\
4r	4r	4r	4r
=:!!:	=:!!:	=:!!:	=:!!:
*>D	*>D	*>D	*>D
4r	4r	4r	4ff#\
2ryy	2ryy	2ryy	2ryy
=51	=51	=51	=51
[2.F#\	2B#/	2d#/	2fff#\
.	8B#\L	4a/	8ddd#\L
.	8d#\J	.	8bb#\J
=52	=52	=52	=52
2.F#\_	2e\	2g#/	4ccc#\
.	.	.	8eee\L
.	.	.	8ccc#\J
.	8c#\L	4gn/	4aa#\
.	8e\J	.	.
=53	=53	=53	=53
2.F#\_	2d#\	2f#/	4bb\
.	.	.	8ddd#\L
.	.	.	8bb\
.	4B/	4d/	8gg#\
.	.	.	8ee#\J
=54	=54	=54	=54
4F#\]	4A#/	4c#/	4ff#\
4r	4r	4r	4r
4r	4r	4r	4ff#\
=55	=55	=55	=55
4BB/	4d#\	4f#/	2bb\
4r	4B/	4d#/	.
4r	4F#/	4B/	4ddd#\
=56	=56	=56	=56
4EE/	4e\	4g#/	2ccc#\
4r	4c#\	4e/	.
4r	4E/	4c#/	4ggg#\
=57	=57	=57	=57
4FF#/	4f#\	4a#/	2fff#\
4r	4c#\	4f#/	.
4r	4A#/	4c#/	4eee\
=58	=58	=58	=58
4BB/	4f#\	4b\	2ddd#\
4r	4d#\	4f#/	.
4r	4B/	4d#/	4fff#\
=59	=59	=59	=59
2.D#\	4d#\	4f#/	2bbb\
.	4f#\	4b\	.
.	4b\	4dd#\	4fff#\
=60	=60	=60	=60
2.E\	4B/	4g#/	2ggg#\
.	4e\	4cc#\	.
.	4g#\	4ee\	8eee\L
.	.	.	8ccc#\J
=61	=61	=61	=61
2.F#\	2f#\	4dd#\	2bb\
.	.	4b\	.
.	4e\	4a#/	4ccc#\
=62	=62	=62	=62
4BB/	4d#\	4b\	4bb\
4r	4r	4r	4r
==:|!	==:|!	==:|!	==:|!
*-	*-	*-	*-
!!!RWG: Key is interpreted using the Humdrum key tool.
!!!GTL: 6 Quartetti ("Tost III")
!!!AFT: stage2
!!!END: 1994/11/21
!!!KEY: 3475307147
!!!EMD: Converted from MuseData to Humdrum Dec 16, 2000, by Andreas Kornstaedt using muse2kern.
!!!EMD: Manual editing by Craig Sapp, Nov 2001
